X: 152
T: Tao jinshang During the reward
L: 1/8
M: 2/4
K: C
A3A [I:setbarnb 1]| 
d cA2 | 
E3E | 
C2A,2 | 
A3A | 
d c A G | 
E4- | 
E4 | 
A3A | 
d cA2 | 
E3E | 
C2A,2 | 
D3E | 
A2C2 | 
A,4- | 
A,4 |]

@@@ Tune index: 8820
